X: 1719
T: Aodhán Moynihan's
R: reel
M: 4/4
K: Edorian
"e"ed BA FE E2|FE BE FE E2|1 "e"ed BA FE E2|2 ed BA FG G/G/G||"D"FD AG FD D2|
"e"ed BA FE E/E/E|FE DE FE EB,|"D"DE FA "b"B2 dB|1 AF DE "e"FE E2:|2 "b"AF DE "e"FE ED||
"D"FA Bc d2 cd|"e"Be ed BE ED|"D"FA Bc dB Ad|"e"Be ed e2 de|
"D"fe df "b"ed Bc|dA Bd "D"AF FE|"e"EF GA "G"B2 dB|"D"AF DE "e"FE ED|
"D"FA Bc d2 cd|"e"Be ed BE ED|"D"FA Bc dB Ad|"e"Be ed e2 ef|
"G"gf eg "D"fe df|"G"dA Bd "D"AF FE|"e"EF GA "G"B2 dB|"D"AF DE "e"FE E2||

